svgs/instaddr.svg

<svg width="192" height="192" viewBox="0 0 192 192" fill="none" xmlns="http://www.w3.org/2000/svg">
<path d="M139.453 104.545V76.2183L150.613 69.3514L169.496 101.111C174.646 117.419 166.063 126.003 151.471 126.003L139.453 104.545Z" stroke="black" stroke-width="10" stroke-linejoin="round"/>
<path d="M117.136 127.72H125.72C127.146 130.953 138.222 130.473 162.629 128.579C154.002 147.26 148.849 154.551 138.595 156.904L124.861 157.762V168.063L102.545 144.029L117.136 127.72Z" stroke="black" stroke-width="10" stroke-linejoin="round"/>
<path d="M106.836 61.6262H135.162L142.887 35.0171L134.304 41.0255C128.154 29.5842 124.643 24.4323 117.995 23L90.5271 23.8583L110.27 54.7593L101.685 59.9095L106.836 61.6262Z" stroke="black" stroke-width="10" stroke-linejoin="round"/>
<path d="M45.0341 63.0072L51.901 67.2989V62.1488H77.6517L93.9606 34.6813C88.8105 21.8058 75.0767 19.2308 65.6347 28.6727L45.0341 63.0072Z" stroke="black" stroke-width="10" stroke-linejoin="round"/>
<path d="M21 109.694C21 115.703 24.2654 122.753 36.4505 138.879C39.8064 126.023 43.4487 119.333 51.901 107.978V78.7934L21 86.5186L29.5836 92.5271C22.7703 99.2205 21 101.969 21 109.694Z" stroke="black" stroke-width="10" stroke-linejoin="round"/>
<path d="M54.2006 161.196H96.2602V134.586H47.3338C40.4669 143.171 42.1836 156.046 54.2006 161.196Z" stroke="black" stroke-width="10"/>
<path d="M55.3344 65.0597V125.145H136.02V65.0597M55.3344 65.0597H136.02M55.3344 65.0597L96.5357 104.545L136.02 65.0597" stroke="black" stroke-width="10" stroke-linejoin="round"/>
</svg>

<svg width="192" height="192" viewBox="0 0 192 192" fill="none" xmlns="http://www.w3.org/2000/svg"><path d="M139.453 104.545V76.218l11.16-6.867 18.883 31.76c5.15 16.308-3.433 24.892-18.025 24.892l-12.018-21.458ZM117.136 127.72h8.584c1.426 3.233 12.502 2.753 36.909.859-8.627 18.681-13.78 25.972-24.034 28.325l-13.734.858v10.301l-22.316-24.034 14.591-16.309ZM106.836 61.626h28.326l7.725-26.609-8.583 6.008c-6.15-11.44-9.661-16.593-16.309-18.025l-27.468.858L110.27 54.76l-8.585 5.15 5.151 1.717Z" stroke="#000" stroke-width="10" stroke-linejoin="round"/><path d="m45.034 63.007 6.867 4.292v-5.15h25.75l16.31-27.468c-5.15-12.875-18.884-15.45-28.326-6.008l-20.6 34.334ZM21 109.694c0 6.009 3.265 13.059 15.45 29.185 3.356-12.856 6.999-19.546 15.451-30.901V78.793L21 86.52l8.584 6.008C22.77 99.221 21 101.97 21 109.694Z" stroke="#000" stroke-width="10" stroke-linejoin="round"/><path d="M54.2 161.196h42.06v-26.61H47.334c-6.867 8.585-5.15 21.46 6.867 26.61Z" stroke="#000" stroke-width="10"/><path d="M55.334 65.06v60.085h80.686V65.06m-80.686 0h80.686m-80.686 0 41.202 39.485L136.02 65.06" stroke="#000" stroke-width="10" stroke-linejoin="round"/></svg>
